src/assets/sponsors/zksync.svg

<svg fill="none" height="27" viewBox="0 0 120 27" width="120" xmlns="http://www.w3.org/2000/svg"><path clip-rule="evenodd" d="m41.6539 13.4915-11.8161-11.77476v8.62326l-11.7323 8.6339 11.7323.0081v6.2842z" fill="#4e529a" fill-rule="evenodd"/><path clip-rule="evenodd" d="m-.00158644 13.4872 11.81608644 11.7747v-8.5539l11.7324-8.7033-11.7324-.00806v-6.28418z" fill="#8c8dfc" fill-rule="evenodd"/><g fill="#fff" fill-opacity=".9"><path d="m59.2586 19.3717h-9.0438v-2.5971l5.1774-5.7712h-5.044v-2.55271h8.8215v2.46391l-5.3329 5.8822h5.4218z"/><path d="m71.6009 8.45069-4.3774 4.59481 4.4663 6.3262h-3.622l-2.8886-4.1731-1.2222 1.2874v2.8857h-2.9553v-16.07074h2.9553v9.21184l3.7775-4.06211z"/><path d="m84.4547 7.38523-2.7553.84349c-.1037-.56233-.3852-1.07286-.8444-1.5316s-1.1333-.68811-2.0221-.68811c-.7258 0-1.3184.19977-1.7776.59932-.4592.38475-.6889.85089-.6889 1.39842 0 .96187.5704 1.55379 1.711 1.77576l2.1999.42179c1.3924.2663 2.4739.8212 3.2442 1.6647s1.1554 1.835 1.1554 2.9744c0 1.3023-.5185 2.4417-1.5554 3.4184-1.0222.9619-2.3998 1.4428-4.133 1.4428-.9925 0-1.8888-.148-2.6887-.4439-.8-.296-1.4444-.6881-1.9332-1.1765-.4889-.5031-.874-1.0284-1.1555-1.576-.2666-.5623-.4296-1.1394-.4888-1.7313l2.8442-.7547c.0741.8434.4 1.5464.9777 2.1087.5926.5623 1.4147.8435 2.4665.8435.7999 0 1.4221-.1776 1.8665-.5328.4592-.3551.6889-.8213.6889-1.3984 0-.4587-.1704-.8509-.5111-1.1764-.3259-.3404-.7926-.5697-1.3999-.6881l-2.1998-.444c-1.274-.2663-2.2814-.7917-3.022-1.576-.7407-.7843-1.1111-1.76094-1.1111-2.92998 0-1.39102.5333-2.56007 1.5999-3.50714 1.0814-.94708 2.3776-1.42062 3.8886-1.42062.9036 0 1.711.12579 2.422.37736.7111.25156 1.2814.59192 1.711 1.02106.4296.41435.7629.84349 1 1.28743.237.44394.4073.91008.511 1.39842z"/><path d="m89.6555 23.6779h-3.1331l2.5776-5.6825-4.6441-9.54471h3.3109l2.9109 6.39271 2.6887-6.39271h3.1553z"/><path d="m100.601 13.0899v6.2818h-2.9556v-10.92101h2.8666v1.35402c.311-.53273.755-.93968 1.333-1.22084s1.185-.42174 1.822-.42174c1.289 0 2.267.40694 2.933 1.22084.682.79913 1.022 1.83493 1.022 3.10763v6.8811h-2.955v-6.3706c0-.6511-.17-1.1765-.511-1.576-.326-.3996-.83-.5993-1.511-.5993-.622 0-1.118.2145-1.489.6437-.37.4291-.555.9693-.555 1.6204z"/><path d="m114.866 10.848c-.785 0-1.444.2737-1.978.8213-.533.5475-.8 1.2948-.8 2.2419 0 .947.267 1.7017.8 2.2641.548.5475 1.215.8213 2 .8213.696 0 1.252-.1776 1.667-.5328.415-.3699.696-.8065.844-1.3096l2.6.8657c-.267 1.0063-.844 1.8719-1.733 2.5971-.889.7251-2.015 1.0876-3.378 1.0876-1.629 0-3-.5475-4.111-1.6426-1.096-1.1098-1.644-2.4934-1.644-4.1508 0-1.6722.541-3.0558 1.622-4.15088 1.096-1.09506 2.444-1.64259 4.044-1.64259 1.393 0 2.533.36255 3.422 1.08766.889.71031 1.459 1.57601 1.711 2.59701l-2.644.8879c-.356-1.2282-1.163-1.8423-2.422-1.8423z"/></g></svg>

<svg width="120" height="27" viewBox="0 0 120 27" fill="none" xmlns="http://www.w3.org/2000/svg" class="projectLogo _margin-right-1-2"><path fill-rule="evenodd" clip-rule="evenodd" d="M41.6539 13.4915L29.8378 1.71674V10.34L18.1055 18.9739L29.8378 18.982V25.2662L41.6539 13.4915Z" fill="#4E529A"></path> <path fill-rule="evenodd" clip-rule="evenodd" d="M-0.00158644 13.4872L11.8145 25.2619L11.8145 16.708L23.5469 8.0047L11.8145 7.99664L11.8145 1.71246L-0.00158644 13.4872Z" fill="#8C8DFC"></path> <path d="M59.2586 19.3717H50.2148V16.7746L55.3922 11.0034H50.3482V8.45069H59.1697V10.9146L53.8368 16.7968H59.2586V19.3717Z" fill="white" fill-opacity="0.9"></path> <path d="M71.6009 8.45069L67.2235 13.0455L71.6898 19.3717H68.0678L65.1792 15.1986L63.957 16.486V19.3717H61.0017V3.30096H63.957V12.5128L67.7345 8.45069H71.6009Z" fill="white" fill-opacity="0.9"></path> <path d="M84.4547 7.38523L81.6994 8.22872C81.5957 7.66639 81.3142 7.15586 80.855 6.69712C80.3958 6.23838 79.7217 6.00901 78.8329 6.00901C78.1071 6.00901 77.5145 6.20878 77.0553 6.60833C76.5961 6.99308 76.3664 7.45922 76.3664 8.00675C76.3664 8.96862 76.9368 9.56054 78.0774 9.78251L80.2773 10.2043C81.6697 10.4706 82.7512 11.0255 83.5215 11.869C84.2918 12.7125 84.6769 13.704 84.6769 14.8434C84.6769 16.1457 84.1584 17.2851 83.1215 18.2618C82.0993 19.2237 80.7217 19.7046 78.9885 19.7046C77.996 19.7046 77.0997 19.5566 76.2998 19.2607C75.4998 18.9647 74.8554 18.5726 74.3666 18.0842C73.8777 17.5811 73.4926 17.0558 73.2111 16.5082C72.9445 15.9459 72.7815 15.3688 72.7223 14.7769L75.5665 14.0222C75.6406 14.8656 75.9665 15.5686 76.5442 16.1309C77.1368 16.6932 77.9589 16.9744 79.0107 16.9744C79.8106 16.9744 80.4328 16.7968 80.8772 16.4416C81.3364 16.0865 81.5661 15.6203 81.5661 15.0432C81.5661 14.5845 81.3957 14.1923 81.055 13.8668C80.7291 13.5264 80.2624 13.2971 79.6551 13.1787L77.4553 12.7347C76.1813 12.4684 75.1739 11.943 74.4333 11.1587C73.6926 10.3744 73.3222 9.39776 73.3222 8.22872C73.3222 6.8377 73.8555 5.66865 74.9221 4.72158C76.0035 3.7745 77.2997 3.30096 78.8107 3.30096C79.7143 3.30096 80.5217 3.42675 81.2327 3.67832C81.9438 3.92988 82.5141 4.27024 82.9437 4.69938C83.3733 5.11373 83.7066 5.54287 83.9437 5.98681C84.1807 6.43075 84.351 6.89689 84.4547 7.38523Z" fill="white" fill-opacity="0.9"></path> <path d="M89.6555 23.6779H86.5224L89.1 17.9954L84.4559 8.45069H87.7668L90.6777 14.8434L93.3664 8.45069H96.5217L89.6555 23.6779Z" fill="white" fill-opacity="0.9"></path> <path d="M100.601 13.0899V19.3717H97.6454V8.45069H100.512V9.80471C100.823 9.27198 101.267 8.86503 101.845 8.58387C102.423 8.30271 103.03 8.16213 103.667 8.16213C104.956 8.16213 105.934 8.56907 106.6 9.38297C107.282 10.1821 107.622 11.2179 107.622 12.4906V19.3717H104.667V13.0011C104.667 12.35 104.497 11.8246 104.156 11.4251C103.83 11.0255 103.326 10.8258 102.645 10.8258C102.023 10.8258 101.527 11.0403 101.156 11.4695C100.786 11.8986 100.601 12.4388 100.601 13.0899Z" fill="white" fill-opacity="0.9"></path> <path d="M114.866 10.848C114.081 10.848 113.422 11.1217 112.888 11.6693C112.355 12.2168 112.088 12.9641 112.088 13.9112C112.088 14.8582 112.355 15.6129 112.888 16.1753C113.436 16.7228 114.103 16.9966 114.888 16.9966C115.584 16.9966 116.14 16.819 116.555 16.4638C116.97 16.0939 117.251 15.6573 117.399 15.1542L119.999 16.0199C119.732 17.0262 119.155 17.8918 118.266 18.617C117.377 19.3421 116.251 19.7046 114.888 19.7046C113.259 19.7046 111.888 19.1571 110.777 18.062C109.681 16.9522 109.133 15.5686 109.133 13.9112C109.133 12.239 109.674 10.8554 110.755 9.76032C111.851 8.66526 113.199 8.11773 114.799 8.11773C116.192 8.11773 117.332 8.48028 118.221 9.20539C119.11 9.9157 119.68 10.7814 119.932 11.8024L117.288 12.6903C116.932 11.4621 116.125 10.848 114.866 10.848Z" fill="white" fill-opacity="0.9"></path></svg>
